X: 1
T:Parsons farewell
M:C|
L:1/8
Q:200
B:The Round Band Book of Playford
K:F
e | "Dm"f2d2 d2ef | "C"g2c2 c3c | "Bb"def2 e2 d2 | "F"c2A2 A4 :: \
a2 | "Dm"f4 f2a2 | "F"f4 f2a2 | "Dm"fga2 fga2 | "C"g2e2 e4 | \
"C"efg2 efg2 | "Dm"f2d2 "Bb"defg | "F"a2gf "C"ede2 | d6 :|
